X:180
T:Miss Sophia Campbell
C:Robert Mackintosh
Z:John Chambers
R:jig
M:6/8
L:1/8
K:Gm
Bc | d3 g^fg | dBG Bcd | c3 f=ef | cAF ABc |
d3 bag | ag^f g=fe | dcB AG^F | G3- GBc :|
d3 dBG | dBG Bcd | c3 cAF | cAF ABc |
d3 dBG | dBG gfe |  dcB AG^F | G3- GBc |
d3 dBG | dBG Bcd | c3 cAF | cAF ABc |
d3 bag | ag^f g=fe | dcB AG^F | G3 G3 |]
